X:1
T:Growling Old Man and Woman
L:1/8
M:C|
I:linebreak $
K:G
V:1 treble
V:1
 A,B, |"Am" CA,EA, CA,A,C |"G" B,G,DG, B,G,G,B, |"Am" CA,EA, CA,A,C |"G" B,A,G,B,"Am" A,2 A,B, |$
 "Am"  CA,EA, CA,A,C |"G" B,G,DG, B,A,G,B, |"Am" CA,EA, CA,A,C |"G" B,A,G,B, "Am" A,2 ::$
 |:^cd |"A" efed ^cdef |"G"  gedc BGGB |"A" efed ^cAcd |"E" eaa^g "A"a2 ef |$
 "A"gfed ^cdef |"G" gedc BGGB |"Am" c2 (3BcB AGED | "Em" GEDB,"Am" A,2 :|
